icons/dizzy.svg

<svg width="48" height="48" viewBox="0 0 48 48" fill="none" xmlns="http://www.w3.org/2000/svg">
<path d="M28.7071 17.2929C28.3166 16.9024 27.6834 16.9024 27.2929 17.2929C26.9024 17.6834 26.9024 18.3166 27.2929 18.7071L29.0858 20.5L27.2929 22.2929C26.9024 22.6834 26.9024 23.3166 27.2929 23.7071C27.6834 24.0976 28.3166 24.0976 28.7071 23.7071L30.5 21.9142L32.2929 23.7071C32.6834 24.0976 33.3166 24.0976 33.7071 23.7071C34.0976 23.3166 34.0976 22.6834 33.7071 22.2929L31.9142 20.5L33.7071 18.7071C34.0976 18.3166 34.0976 17.6834 33.7071 17.2929C33.3166 16.9024 32.6834 16.9024 32.2929 17.2929L30.5 19.0858L28.7071 17.2929Z" fill="black"/>
<path d="M15.7071 17.2929C15.3166 16.9024 14.6834 16.9024 14.2929 17.2929C13.9024 17.6834 13.9024 18.3166 14.2929 18.7071L16.0858 20.5L14.2929 22.2929C13.9024 22.6834 13.9024 23.3166 14.2929 23.7071C14.6834 24.0976 15.3166 24.0976 15.7071 23.7071L17.5 21.9142L19.2929 23.7071C19.6834 24.0976 20.3166 24.0976 20.7071 23.7071C21.0976 23.3166 21.0976 22.6834 20.7071 22.2929L18.9142 20.5L20.7071 18.7071C21.0976 18.3166 21.0976 17.6834 20.7071 17.2929C20.3166 16.9024 19.6834 16.9024 19.2929 17.2929L17.5 19.0858L15.7071 17.2929Z" fill="black"/>
<path fill-rule="evenodd" clip-rule="evenodd" d="M31 32C31 35.3137 27.866 36 24 36C20.134 36 17 35.3137 17 32C17 28.6863 20.134 26 24 26C27.866 26 31 28.6863 31 32ZM29 32C29 32.5015 28.8862 32.7633 28.7868 32.9121C28.6821 33.0688 28.4917 33.251 28.1103 33.4273C27.2668 33.8174 25.8965 34 24 34C22.1035 34 20.7332 33.8174 19.8897 33.4273C19.5083 33.251 19.3179 33.0688 19.2132 32.9121C19.1138 32.7633 19 32.5015 19 32C19 30.069 20.9382 28 24 28C27.0618 28 29 30.069 29 32Z" fill="black"/>
<path fill-rule="evenodd" clip-rule="evenodd" d="M42 24C42 33.9411 33.9411 42 24 42C14.0589 42 6 33.9411 6 24C6 14.0589 14.0589 6 24 6C33.9411 6 42 14.0589 42 24ZM40 24C40 32.8366 32.8366 40 24 40C15.1634 40 8 32.8366 8 24C8 15.1634 15.1634 8 24 8C32.8366 8 40 15.1634 40 24Z" fill="black"/>
</svg>

<svg
  xmlns="http://www.w3.org/2000/svg"
  width="24"
  height="24"
  viewBox="0 0 24 24"
  fill="none"
  stroke="currentColor"
  stroke-width="2"
  stroke-linecap="round"
  stroke-linejoin="round"
>
  <path d="M28.707 17.293a1 1 0 0 0-1.414 1.414l1.793 1.793-1.793 1.793a1 1 0 0 0 1.414 1.414l1.793-1.793 1.793 1.793a1 1 0 0 0 1.414-1.414L31.914 20.5l1.793-1.793a1 1 0 0 0-1.414-1.414L30.5 19.086z" />
  <path d="M15.707 17.293a1 1 0 0 0-1.414 1.414l1.793 1.793-1.793 1.793a1 1 0 0 0 1.414 1.414l1.793-1.793 1.793 1.793a1 1 0 0 0 1.414-1.414L18.914 20.5l1.793-1.793a1 1 0 0 0-1.414-1.414L17.5 19.086z" />
  <path
    fill-rule="evenodd"
    d="M31 32c0 3.314-3.134 4-7 4s-7-.686-7-4 3.134-6 7-6 7 2.686 7 6m-2 0c0 .502-.114.763-.213.912-.105.157-.295.339-.677.515-.843.39-2.213.573-4.11.573-1.896 0-3.267-.183-4.11-.573-.382-.176-.572-.358-.677-.515-.1-.149-.213-.41-.213-.912 0-1.931 1.938-4 5-4s5 2.069 5 4"
    clip-rule="evenodd"
  />
  <path
    fill-rule="evenodd"
    d="M42 24c0 9.941-8.059 18-18 18S6 33.941 6 24 14.059 6 24 6s18 8.059 18 18m-2 0c0 8.837-7.163 16-16 16S8 32.837 8 24 15.163 8 24 8s16 7.163 16 16"
    clip-rule="evenodd"
  />
</svg>
